!!!OTL-incipit: 'S MORGENS WENN ICH FRUEH AUFSTEH
!!!ARE: Europa, Mitteleuropa, Deutschland
!!!SCT: Z0222
!!!TXL: @@DE
!!!YEM: Copyright 1995, estate of Helmut Schaffrath.
**kern	**text
*ICvox	*
*M3/4	*
*k[b-e-]	*
*B-:	*
=1	=1
!LO:TX:a:t=Deutſch.	!
!LO:TX:a:t=Schornſteinfegerlied.	!
{8.dd	'S_Mor-
16ee-	-gens
4ff	wenn
4b-	ich
=2	=2
8.cc	früh
16a	auf-
2b-}	-ſteh,
=3	=3
{8.dd	Und
16ee-	den
4ff	Schornſtein
4b-	.
=4	=4
8.cc	fe-
16a	-gen
2b-}	geh,
=5|:	=5|:
{8.ee-	klopf
16ff	ich
4gg	lei-
4gg	-ſe
=6	=6
8.cc	an
16dd	die
2ee-}	Thür
=7	=7
{8.dd	ſchö-
16ee-	-ne
4ff	Jung-
4ff	-frau,
=8	=8
8.a	kommt
16f	her-
2b-}	-für.
==	==
!!!AGN: Schorsteinfeger -, Handwerker - Lied
!!!ONB: ESAC (Essen Associative Code) Database: ZUCCAL
!!!AMT: simple triple
!!!AIN: vox
!!!EED: Helmut Schaffrath
!!!EEV: 1.0
!!!GTL: III. Soldaten-, Jaeger-, Schiffer-, Fuhrmanns- und Handwerks-Lieder.
!!!URL-scan: https://www.digitale-sammlungen.de/de/view/bsb11160571?page=414
!!!ENC: Anna Maria Matuszewska
!!!EEV: 2025/01/29
*-	*-
